packages/components/icons/assets/UnlockFill.svg

<svg viewBox="0 0 24 24" xmlns="http://www.w3.org/2000/svg" data-title="UnlockFill" fill="currentColor" stroke="none">
  <path d="M17.5928 8.91667H8.11573V7.84167C8.11573 6.81667 8.51973 5.85 9.25197 5.125C9.98422 4.4 10.9774 4 12.0042 4C12.5176 4.01667 13.0142 4.09167 13.4855 4.29167C13.9569 4.49167 14.3777 4.76667 14.7312 5.125C15.1184 5.51667 15.758 5.525 16.162 5.14167C16.566 4.75833 16.566 4.125 16.1789 3.725C15.6318 3.175 14.9837 2.74167 14.2683 2.44167C13.5444 2.14167 12.8122 2.00833 12.0042 2C10.4303 2 8.94056 2.60833 7.82956 3.71667C6.71015 4.81667 6.09574 6.29167 6.09574 7.85V8.95833C4.91741 9.10833 4 10.1 4 11.3083V19.6167C4 20.9333 5.07733 22 6.40715 22H17.5928C18.9227 22 20 20.9333 20 19.6167V11.3083C20 9.99167 18.9227 8.925 17.5928 8.925V8.91667ZM11.9116 17.7667C10.8006 17.7667 9.89164 16.8667 9.89164 15.7667C9.89164 14.6667 10.8006 13.7667 11.9116 13.7667C13.0226 13.7667 13.9316 14.6667 13.9316 15.7667C13.9316 16.8667 13.0226 17.7667 11.9116 17.7667Z"/>
</svg>

<svg viewBox="0 0 24 24" xmlns="http://www.w3.org/2000/svg" data-title="UnlockFill" fill="currentColor" stroke="none">
  <path d="m17.59,8.92h-9.48v-1.07c0-1.03.4-1.99,1.14-2.72.73-.72,1.73-1.12,2.75-1.12.51.02,1.01.09,1.48.29.47.2.89.48,1.25.83.39.39,1.03.4,1.43.02.4-.38.4-1.02.02-1.42-.55-.55-1.2-.98-1.91-1.28-.72-.3-1.46-.43-2.26-.44-1.57,0-3.06.61-4.17,1.72-1.12,1.1-1.73,2.57-1.73,4.13v1.11c-1.18.15-2.1,1.14-2.1,2.35v8.31c0,1.32,1.08,2.38,2.41,2.38h11.19c1.33,0,2.41-1.07,2.41-2.38v-8.31c0-1.32-1.08-2.38-2.41-2.38h0Zm-5.68,8.85c-1.11,0-2.02-.9-2.02-2s.91-2,2.02-2,2.02.9,2.02,2-.91,2-2.02,2Z"/>
</svg>
